X: 43016
T: Willy Taylor's
R: polka
M: 2/4
K: Gmajor
|:E|DG GF/G/|Ad d>e|f/g/f/e/ d/e/d/c/|AF G/A/G/F/|
DG GF/G/|Ad d>e|f/e/d/c/ AF|G2 G:|
K: DMaj
|:F/G/|Af f/e/d/c/|BG G>B|Aa g/f/e/d/|fe eF/G/|
Af f/g/f/e/|dG B>B|Aa g/f/e/d/|fd d:|

